src/assets/images/landing/thirdPartyLogos/balancer_logo.svg

<svg width="118" height="22" viewBox="0 0 118 22" fill="none" xmlns="http://www.w3.org/2000/svg">
<path d="M19.788 13.4316C24.017 14.2035 26.9085 15.7088 26.9085 17.4456C26.9085 19.9544 20.8895 22 13.4542 22C6.019 22 0 19.9737 0 17.4456C0 15.7088 2.87181 14.2035 7.12052 13.4316C8.96949 13.8947 11.1332 14.1649 13.4542 14.1649C15.7753 14.1649 17.939 13.914 19.788 13.4316ZM18.175 6.07895C21.7746 6.65789 24.253 7.89298 24.253 9.34035C24.253 11.3281 19.4142 12.9491 13.4542 12.9491C7.49425 12.9491 2.65544 11.3281 2.65544 9.32105C2.65544 7.89298 5.13386 6.65789 8.73346 6.05965C10.1104 6.40702 11.7233 6.6 13.4542 6.6C15.1655 6.6193 16.7785 6.40702 18.175 6.07895ZM13.4936 0C17.9587 0 21.5779 1.23509 21.5779 2.74035C21.5779 4.24562 17.9587 5.4807 13.4936 5.4807C9.0285 5.4807 5.40923 4.24562 5.40923 2.74035C5.40923 1.23509 9.0285 0 13.4936 0ZM44.0607 18.1404C45.1819 18.1404 46.126 17.9667 46.8538 17.6386C47.6013 17.2912 48.152 16.8281 48.5258 16.2298C48.8995 15.6316 49.0962 14.9368 49.0765 14.2228C49.0765 13.4895 48.9192 12.8719 48.6241 12.3509C48.3291 11.8491 47.9357 11.4439 47.4439 11.1544C46.9915 10.8842 46.4801 10.7105 45.949 10.6912V10.5561C46.4014 10.4597 46.8538 10.2667 47.2472 9.99649C47.6406 9.74561 47.9357 9.39825 48.1717 8.99298C48.4077 8.58772 48.5061 8.08596 48.5061 7.48772C48.5061 6.77368 48.3291 6.13684 47.975 5.57719C47.6209 5.01754 47.0898 4.57368 46.3817 4.24561C45.6736 3.91754 44.7885 3.76316 43.7263 3.76316H38.1007V18.1596H44.0607V18.1404ZM43.4116 9.8614H40.7758V5.88596H43.4706C44.2574 5.88596 44.8475 6.07894 45.2409 6.42631C45.6343 6.79298 45.8506 7.23684 45.8506 7.79649C45.8506 8.22105 45.7326 8.58772 45.5359 8.89649C45.3195 9.20526 45.0245 9.43684 44.6704 9.61052C44.2574 9.78421 43.8443 9.8614 43.4116 9.8614ZM43.6476 15.9597H40.7955V11.7333H43.7263C44.277 11.7333 44.7491 11.8298 45.1425 12.0421C45.5359 12.2351 45.8506 12.5053 46.067 12.8526C46.2834 13.2 46.4014 13.586 46.4014 14.0105C46.4014 14.5895 46.185 15.0526 45.7523 15.4193C45.2999 15.786 44.6114 15.9597 43.6476 15.9597ZM53.8956 18.3526C54.4661 18.3526 54.9578 18.2754 55.3906 18.1211C55.8233 17.9667 56.1774 17.7544 56.4527 17.5035C56.7478 17.2526 56.9642 16.9632 57.1215 16.6544H57.2002V18.1404H59.6983V10.9228C59.6983 10.2088 59.5606 9.61052 59.3049 9.12807C59.0492 8.66491 58.6951 8.27895 58.2624 7.98947C57.81 7.7 57.3379 7.50701 56.8265 7.39123C56.315 7.25614 55.784 7.21754 55.2529 7.21754C54.4857 7.21754 53.7776 7.33333 53.1482 7.54562C52.5384 7.7579 51.9877 8.10526 51.5353 8.54912C51.0828 9.01228 50.7681 9.59123 50.5911 10.2088L53.0105 10.5561C53.1285 10.1895 53.3842 9.86141 53.758 9.59123C54.1317 9.32105 54.6234 9.18597 55.2725 9.18597C55.8823 9.18597 56.3347 9.32105 56.6494 9.62982C56.9642 9.9193 57.1412 10.3246 57.1412 10.8649V10.9035C57.1412 11.1351 57.0428 11.3281 56.8658 11.4439C56.6888 11.5596 56.3937 11.6368 55.9807 11.6947C55.5676 11.7526 55.0562 11.8105 54.4071 11.8684C53.8956 11.9263 53.3646 12.0035 52.8531 12.1386C52.3811 12.2544 51.9286 12.4281 51.4959 12.6789C51.1025 12.9105 50.7878 13.2386 50.5518 13.6439C50.3157 14.0491 50.1977 14.5509 50.1977 15.1491C50.1977 15.8632 50.3551 16.4614 50.6894 16.9439C51.0042 17.4263 51.4566 17.793 52.0073 18.0439C52.5581 18.2368 53.1875 18.3526 53.8956 18.3526ZM54.5644 16.4807C54.0137 16.4807 53.5809 16.3649 53.2269 16.114C52.8728 15.8825 52.6958 15.5158 52.6958 15.0526C52.6958 14.7246 52.7745 14.4544 52.9712 14.2421C53.1482 14.0298 53.3842 13.8754 53.6793 13.7596C54.0137 13.6246 54.3677 13.5474 54.7218 13.5088L55.3316 13.4316C55.5676 13.4123 55.8036 13.3544 56.0397 13.3158C56.2757 13.2772 56.4921 13.2193 56.6888 13.1614C56.8855 13.1035 57.0232 13.0456 57.1018 12.9684V14.2421C57.1018 14.6474 57.0035 15.014 56.7871 15.3421C56.5708 15.6895 56.2757 15.9597 55.902 16.1526C55.5283 16.3842 55.0758 16.4807 54.5644 16.4807ZM64.3404 18.1404V3.74386H61.744V18.1404H64.3404ZM69.6119 18.3526C70.1824 18.3526 70.6938 18.2754 71.1068 18.1211C71.5396 17.9667 71.8936 17.7544 72.169 17.5035C72.4641 17.2526 72.6804 16.9632 72.8378 16.6544H72.9165V18.1404H75.4342V10.9228C75.4342 10.2088 75.2965 9.61052 75.0408 9.12807C74.7851 8.66491 74.4311 8.27895 73.9983 7.98947C73.5459 7.7 73.0738 7.50701 72.5624 7.39123C72.051 7.25614 71.5199 7.21754 70.9888 7.21754C70.2217 7.21754 69.5136 7.33333 68.8841 7.54562C68.2744 7.7579 67.7236 8.10526 67.2712 8.54912C66.8188 9.01228 66.4844 9.59123 66.3271 10.2088L68.7465 10.5561C68.8841 10.1895 69.1202 9.86141 69.4939 9.59123C69.8676 9.32105 70.3594 9.18597 71.0085 9.18597C71.6183 9.18597 72.0707 9.32105 72.3854 9.62982C72.7001 9.9193 72.8575 10.3246 72.8575 10.8649V10.9035C72.8575 11.1351 72.7591 11.3281 72.5821 11.4439C72.4051 11.5596 72.11 11.6368 71.6969 11.6947C71.3036 11.7526 70.7725 11.8105 70.1234 11.8684C69.5923 11.9263 69.0808 12.0035 68.5694 12.1386C68.0974 12.2544 67.6449 12.4281 67.2319 12.6789C66.8385 12.9105 66.5041 13.2386 66.2877 13.6439C66.0517 14.0491 65.9533 14.5509 65.9533 15.1491C65.9533 15.8632 66.1107 16.4614 66.4451 16.9439C66.7598 17.4263 67.2122 17.793 67.763 18.0439C68.294 18.2368 68.9235 18.3526 69.6119 18.3526ZM70.3004 16.4807C69.7693 16.4807 69.3169 16.3649 68.9628 16.114C68.6088 15.8825 68.4514 15.5158 68.4514 15.0526C68.4514 14.7246 68.5301 14.4544 68.7071 14.2421C68.8841 14.0298 69.1202 13.8754 69.4349 13.7596C69.7693 13.6246 70.1233 13.5474 70.4774 13.5088L71.0872 13.4316C71.3232 13.4123 71.5593 13.3544 71.7953 13.3158C72.0313 13.2772 72.2477 13.2193 72.4444 13.1614C72.6411 13.1035 72.7788 13.0456 72.8575 12.9684V14.2421C72.8575 14.6474 72.7591 15.014 72.5427 15.3421C72.3264 15.6895 72.0313 15.9597 71.6576 16.1526C71.2642 16.3842 70.8118 16.4807 70.3004 16.4807ZM80.0763 18.1404V11.8105C80.0763 11.2895 80.1747 10.8456 80.3911 10.4789C80.5878 10.1123 80.8631 9.82281 81.2172 9.62982C81.5909 9.43684 82.004 9.34035 82.4171 9.34035C83.0858 9.34035 83.6169 9.55263 83.9907 9.9579C84.3644 10.3632 84.5611 10.9228 84.5611 11.6561V18.1404H87.1575V11.2702C87.1575 10.4018 87.0002 9.66842 86.7051 9.07018C86.3904 8.47193 85.9577 8.00877 85.3872 7.6807C84.8168 7.35263 84.148 7.19824 83.4006 7.19824C82.5744 7.19824 81.886 7.37193 81.3352 7.7386C80.7845 8.08597 80.3714 8.58772 80.1157 9.18597H79.978V7.35263H77.4996V18.1596H80.0763V18.1404ZM94.042 18.3526C94.9665 18.3526 95.773 18.1789 96.4417 17.8509C97.1105 17.5421 97.6613 17.0596 98.0743 16.4614C98.4677 15.8632 98.7038 15.1877 98.7628 14.4351H96.2844C96.2254 14.7825 96.068 15.1298 95.8516 15.4193C95.6549 15.6895 95.3992 15.9018 95.0845 16.0368C94.7698 16.1719 94.4354 16.2491 94.0617 16.2491C93.5109 16.2491 93.0585 16.114 92.6454 15.8246C92.252 15.5351 91.9373 15.1298 91.7209 14.6088C91.5046 14.0877 91.3866 13.4509 91.3866 12.7175C91.3866 11.9842 91.5046 11.3667 91.7209 10.8456C91.9373 10.3246 92.252 9.9193 92.6651 9.64912C93.0585 9.35965 93.5306 9.22456 94.0617 9.22456C94.6911 9.22456 95.1829 9.39824 95.5566 9.74561C95.9303 10.093 96.1664 10.5368 96.2647 11.0579H98.7431C98.6841 10.286 98.4481 9.59123 98.035 9.01228C97.6219 8.43334 97.0515 7.95088 96.3827 7.66141C95.6943 7.33334 94.9075 7.17895 94.0027 7.17895C92.9208 7.17895 91.9963 7.41052 91.2095 7.89298C90.4227 8.35614 89.7933 9.05088 89.3802 9.8614C88.9475 10.6912 88.7311 11.6754 88.7311 12.7754C88.7311 13.8754 88.9475 14.8404 89.3605 15.6702C89.7933 16.5 90.3834 17.1561 91.1702 17.6386C91.9963 18.1211 92.9405 18.3526 94.042 18.3526ZM105.215 18.3526C106.06 18.3526 106.827 18.2175 107.496 17.9667C108.165 17.7158 108.696 17.3491 109.129 16.886C109.562 16.4228 109.857 15.8632 109.994 15.2456L107.575 14.9754C107.457 15.2842 107.28 15.5351 107.063 15.7474C106.827 15.9597 106.572 16.114 106.257 16.2105C105.923 16.3263 105.588 16.3842 105.234 16.3649C104.664 16.3649 104.172 16.2491 103.759 16.0175C103.326 15.786 102.992 15.4193 102.775 14.9947C102.539 14.5509 102.421 14.0105 102.421 13.3737V13.4316H110.093V12.6596C110.093 11.714 109.955 10.9035 109.68 10.2088C109.404 9.51403 109.05 8.95439 108.578 8.51053C108.126 8.06667 107.575 7.7386 106.965 7.52632C106.355 7.31403 105.706 7.19824 105.037 7.19824C103.995 7.19824 103.071 7.42982 102.303 7.91228C101.517 8.39474 100.887 9.07018 100.494 9.8807C100.061 10.7105 99.8446 11.6947 99.8446 12.814C99.8446 13.9526 100.061 14.9175 100.494 15.7474C100.926 16.5772 101.536 17.2333 102.343 17.6772C103.149 18.1211 104.113 18.3526 105.215 18.3526ZM102.441 11.6368C102.461 11.2509 102.579 10.8842 102.775 10.5368C102.992 10.1316 103.307 9.80351 103.72 9.55263C104.133 9.30175 104.624 9.16667 105.116 9.18597C105.608 9.18597 106.041 9.30175 106.414 9.51403C106.788 9.74561 107.083 10.0351 107.3 10.4211C107.516 10.807 107.614 11.2316 107.614 11.7333H102.441V11.6368ZM114.341 18.1404V11.7912C114.341 11.3281 114.44 10.9228 114.656 10.5754C114.872 10.2281 115.168 9.9386 115.541 9.74561C115.935 9.53333 116.367 9.43684 116.8 9.43684C117.016 9.43684 117.253 9.45614 117.489 9.47544C117.725 9.51404 117.902 9.53333 118 9.57193V7.23684C117.862 7.21754 117.705 7.19825 117.548 7.17895C117.39 7.15965 117.233 7.15965 117.056 7.15965C116.426 7.15965 115.856 7.33334 115.364 7.66141C114.872 8.00877 114.538 8.47193 114.322 9.10877H114.204V7.31403H111.686V18.1211H114.341V18.1404Z" fill="white"/>
</svg>

<svg xmlns="http://www.w3.org/2000/svg" width="118" height="22" fill="none"><path fill="#fff" d="M19.788 13.432c4.229.771 7.12 2.277 7.12 4.014 0 2.508-6.018 4.554-13.454 4.554C6.02 22 0 19.974 0 17.446c0-1.737 2.872-3.243 7.12-4.014 1.85.463 4.013.733 6.334.733s4.485-.251 6.334-.733m-1.613-7.353c3.6.579 6.078 1.814 6.078 3.261 0 1.988-4.839 3.61-10.799 3.61S2.655 11.327 2.655 9.32c0-1.428 2.479-2.663 6.078-3.261 1.377.347 2.99.54 4.721.54 1.711.02 3.325-.193 4.721-.521M13.494 0c4.465 0 8.084 1.235 8.084 2.74s-3.62 2.74-8.084 2.74c-4.466 0-8.085-1.234-8.085-2.74C5.41 1.235 9.03 0 13.494 0M44.06 18.14c1.12 0 2.065-.173 2.793-.501.747-.348 1.298-.81 1.672-1.41.373-.597.57-1.292.55-2.006 0-.734-.157-1.351-.452-1.872a3.3 3.3 0 0 0-1.18-1.197 3.15 3.15 0 0 0-1.495-.463v-.135c.452-.096.905-.29 1.298-.56.394-.25.689-.598.925-1.003s.334-.907.334-1.505q0-1.071-.531-1.91-.531-.84-1.593-1.332c-.708-.328-1.593-.483-2.656-.483h-5.625V18.16h5.96zm-.65-8.279h-2.635V5.886h2.695c.786 0 1.377.193 1.77.54.393.367.61.81.61 1.37 0 .425-.118.792-.315 1.1-.217.31-.511.54-.866.715-.413.173-.826.25-1.258.25m.237 6.099h-2.853v-4.227h2.931c.551 0 1.023.097 1.416.31.394.192.709.462.925.81.216.347.334.733.334 1.158 0 .579-.216 1.042-.649 1.408-.452.367-1.14.54-2.104.54m10.248 2.393c.57 0 1.062-.078 1.495-.232a3.1 3.1 0 0 0 1.062-.617c.295-.251.511-.54.668-.85h.08v1.486h2.497v-7.217c0-.714-.137-1.312-.393-1.795a3.25 3.25 0 0 0-1.043-1.139 4.4 4.4 0 0 0-1.435-.598c-.512-.135-1.043-.173-1.574-.173-.767 0-1.475.115-2.105.328-.61.212-1.16.56-1.613 1.003a3.9 3.9 0 0 0-.944 1.66l2.42.347c.117-.366.373-.695.747-.965s.865-.405 1.514-.405c.61 0 1.063.135 1.377.444.315.29.492.695.492 1.235v.038a.62.62 0 0 1-.275.54c-.177.117-.472.194-.885.252s-.925.115-1.574.173c-.511.058-1.042.136-1.554.27-.472.116-.924.29-1.357.54a2.64 2.64 0 0 0-.944.966q-.354.608-.354 1.505c0 .714.157 1.312.491 1.795.315.482.768.849 1.318 1.1.551.193 1.18.309 1.889.309m.668-1.872c-.55 0-.983-.116-1.337-.367-.354-.232-.531-.598-.531-1.061 0-.328.079-.599.275-.81.177-.213.413-.368.708-.483a4 4 0 0 1 1.043-.251l.61-.077c.236-.02.472-.078.708-.116s.452-.097.649-.155.334-.115.413-.193v1.274c0 .405-.098.772-.315 1.1a2.2 2.2 0 0 1-.885.81c-.374.232-.826.329-1.338.329m9.776 1.66V3.743h-2.596V18.14zm5.272.212c.57 0 1.082-.078 1.495-.232a3.1 3.1 0 0 0 1.062-.617c.295-.251.511-.54.669-.85h.079v1.486h2.517v-7.217c0-.714-.138-1.312-.393-1.795a3.25 3.25 0 0 0-1.043-1.139 4.4 4.4 0 0 0-1.436-.598c-.511-.135-1.042-.173-1.573-.173-.767 0-1.475.115-2.105.328-.61.212-1.16.56-1.613 1.003a3.7 3.7 0 0 0-.944 1.66l2.42.347c.137-.366.373-.695.747-.965s.865-.405 1.514-.405c.61 0 1.063.135 1.377.444.315.29.472.695.472 1.235v.038a.62.62 0 0 1-.275.54c-.177.117-.472.194-.885.252-.393.058-.925.115-1.574.173-.53.058-1.042.136-1.554.27-.472.116-.924.29-1.337.54-.394.232-.728.56-.944.966-.236.405-.335.907-.335 1.505 0 .714.158 1.312.492 1.795.315.482.767.849 1.318 1.1.531.193 1.16.309 1.849.309m.688-1.872c-.53 0-.983-.116-1.337-.367-.354-.232-.512-.598-.512-1.061 0-.328.08-.599.256-.81.177-.213.413-.368.728-.483a4 4 0 0 1 1.042-.251l.61-.077c.236-.02.472-.078.708-.116s.453-.097.65-.155c.196-.057.334-.115.413-.193v1.274c0 .405-.099.772-.315 1.1a2.2 2.2 0 0 1-.885.81c-.394.232-.846.329-1.358.329m9.776 1.66v-6.33c0-.521.099-.965.315-1.332.197-.367.472-.656.826-.85.374-.192.787-.289 1.2-.289.669 0 1.2.213 1.574.618.373.405.57.965.57 1.698v6.484h2.596v-6.87c0-.868-.157-1.602-.452-2.2a3.36 3.36 0 0 0-1.318-1.39c-.57-.327-1.239-.482-1.986-.482-.827 0-1.515.174-2.066.54-.55.348-.964.85-1.22 1.448h-.137V7.353H77.5V18.16h2.576zm13.966.212c.924 0 1.731-.174 2.4-.502a4.04 4.04 0 0 0 1.632-1.39c.394-.598.63-1.273.689-2.026h-2.479a2.3 2.3 0 0 1-.432.984c-.197.27-.453.483-.767.618-.315.135-.65.212-1.023.212-.551 0-1.004-.135-1.417-.424-.393-.29-.708-.695-.924-1.216s-.334-1.158-.334-1.892c0-.733.118-1.35.334-1.871s.531-.927.944-1.197c.393-.29.866-.424 1.397-.424.63 0 1.12.173 1.495.52.373.348.61.792.708 1.313h2.478c-.059-.772-.295-1.467-.708-2.046a4 4 0 0 0-1.652-1.35c-.689-.329-1.475-.483-2.38-.483-1.082 0-2.007.232-2.793.714a4.8 4.8 0 0 0-1.83 1.968c-.432.83-.649 1.814-.649 2.914s.217 2.065.63 2.895c.432.83 1.022 1.486 1.81 1.969.825.482 1.77.714 2.871.714m11.173 0c.845 0 1.612-.136 2.281-.386.669-.251 1.2-.618 1.633-1.081a3.5 3.5 0 0 0 .865-1.64l-2.419-.27a2.1 2.1 0 0 1-.512.771 2.1 2.1 0 0 1-.806.463 2.6 2.6 0 0 1-1.023.155q-.855 0-1.475-.348a2.37 2.37 0 0 1-.984-1.022q-.354-.666-.354-1.621v.058h7.672v-.772c0-.946-.138-1.757-.413-2.451-.276-.695-.63-1.255-1.102-1.698a4.3 4.3 0 0 0-1.613-.985 5.9 5.9 0 0 0-1.928-.328c-1.042 0-1.966.232-2.734.714a4.76 4.76 0 0 0-1.809 1.969c-.433.83-.65 1.814-.65 2.933 0 1.139.217 2.104.65 2.933.432.83 1.042 1.486 1.849 1.93s1.77.676 2.872.676m-2.774-6.716c.02-.386.138-.753.334-1.1q.325-.607.945-.984a2.5 2.5 0 0 1 1.396-.367c.492 0 .925.116 1.298.328.374.232.669.521.886.907s.314.81.314 1.312h-5.173zm11.9 6.503v-6.349c0-.463.099-.868.315-1.216.216-.347.512-.636.885-.83a2.64 2.64 0 0 1 1.259-.308c.216 0 .453.02.689.038.236.039.413.058.511.097V7.237c-.138-.02-.295-.039-.452-.058s-.315-.02-.492-.02a3 3 0 0 0-1.692.502c-.492.348-.826.81-1.042 1.448h-.118V7.314h-2.518v10.807h2.655z"/></svg>
